X: 260
M: 6/8
L: 1/8
K: Bb
[|\
[| f |\
cde dcB | bag ^f2d | gab g2^f | g3 b2a |\
gfe dcB | fAB cfe | dgc c2B | A3 f2d |\
gab c2B | B3- B2 |]

